X: 2
T:Stella splendens
C:Livre Vermeil de Montserrat (
<end>
<start>
XIV?me si?cle)
Z:Transcrit et/ou corrig? par Michel BELLON - 2005-03-27
Z:Pour toute observation mailto:galouvielle@free.fr
M:2/2
L:1/4
Q:1/4=110
K:Fmaj
V:1
dd/2c/2 dB| GB c2|_e/2d/2B/2c/2 AG|Bc c/2B/2 G|F4|dd/2c/2 dB| GB c2|_e/2d/2B/2c/2 AG|Bc c/2B/2 G/2A/4F/4|G2 zG|
w:Stel-__la splen-dens in mon-____te ut so-lis ra-_di-um Mi-__ra-cu-lis ser-ra-____to ex-au-di po-_pu-__lum  Prin-
Gd eg|ef/2d/2 ce|fd c/2B/2B/2A/2|G2 zG|Gd eg|ef/2d/2 ce|fd c/2B/2B/2A/2|G2 z2||
w:ci-pes et ma-gna-__ tes ex-stir-pe re-_gi-_a sae-cu-li po-tes-ta-__tes ob-ten-ta ve-_ni-_a
dd/2c/2 dB| GB c2|_e/2d/2B/2c/2 AG|Bc c/2B/2 G|F4|dd/2c/2 dB| GB c2|_e/2d/2B/2c/2 AG|Bc c/2B/2 G/2A/4F/4|G4|]
w:Pe-__cca mi num pro-cla-____mant tu den tes pec-_to-ra Po-__pli te fle-xo cla-____mant hic A-ve Ma-_ri-__a
V:2
G2 GB|dG F2|B2 cd|GF cd|f4| G2 GB|dG F2|B2 cd|GF Bc|d2 zd-|
d G2 G|cB A2|FG Bc|d2 zd-|d G2 G|cB A2|FG Bc|d2 z2|
G2 GB|dG F2|B2 cd|GF cd|f4| G2 GB|dG F2|B2 cd|GF Bc|d4|]
<end>
<start>
